X:1
T:Title
%%score 1 2
L:1/8
Q:1/4=135
M:2/4
K:C
V:1 treble nm="Choir Aahs, Staff"
V:2 bass nm="Choir Aahs, Staff-1"
V:1
 [EG]2 [Ec]>[Fd] | [Ge]2 [Gc]2 | [FA]2 [Ac]2 | [FA]2 [EG]2 | [EG]2 [Ec]>[Fd] | [Ge]2 [Gc]2 | %6
w: By~Isaac~B.~Woodbury * *||||||
 [Fd]2 [FB]2 | [Ec]4 | [EG]2 [Ec]>[Fd] | [Ge]2 [Gc]2 | [FA]2 [Ac]2 | [FA]2 [EG]2 | %12
w: ||||||
 [EG]2 [Ec]>[Fd] | [Ge]2 [Gc]2 | [Fd]2 [FB]2 | [Ec]4 | [Gd]2 [Gd]>e | [Gd]2 G2 | [Ge]2 [Gc]2 | %19
w: |||||||
 [Ac]2 [FA]2 | [EG]2 [Ec]>[Fd] | [Ge]2 [Gc]2 | [Fd]2 [FB]2 | [Ec]4 |] %24
w: |||||
V:2
 [C,C]2 [C,C]2 | [C,C]2 [E,C]2 | [F,C]2 [F,C]2 | [C,C]2 [C,C]2 | [C,C]2 [C,G,]2 | [C,C]2 [E,G,]2 | %6
 [F,A,]2 G,2 | [C,G,]4 | [C,C]2 [C,C]2 | [C,C]2 [E,C]2 | [F,C]2 [F,C]2 | [C,C]2 [C,C]2 | %12
 [C,C]2 [C,G,]2 | [C,C]2 [E,G,]2 | [F,A,]2 G,2 | [C,G,]4 | [G,B,]2 [G,B,]>C | [G,B,]2 [G,B,]2 | %18
 C2 [E,C]2 | [F,C]2 [F,C]2 | [C,C]2 [C,C]2 | [C,C]2 [E,G,]2 | [F,A,]2 G,2 | [C,G,]4 |] %24

